!!!OTL: The Auld Hoose
!!!ARE: Scotland
!!!AMD: Pentatonic
**kern
*clefG2
*k[f#]
*met(C)
*M4/4
*MM76
{8g/L
8a/J
=1
4b/
8a/L
8g/J
(8a/L
8g/J)}
{8e/L
8g/J
=2
8d/L
8e/J
8g/L
8b/J
4.a/}
{(16g/LL
16a/JJ)
=3
4b/
8a/L
8g/J
8a/L
8g/J
8e/L}
{8g/J
=4
8d/L
8b/J
8.a/L
16g/Jk
4g/}
8r
{8g/
=5
8a/L
8a/J
8b\L
8dd\J
8.ee\L
16dd\Jk
8dd\L}
{8b\J
=6
8dd\L
8b\J
8.a/L
16g/Jk
4a/}
8r
{(16g/LL
16a/JJ)
=7
8b/L
8b/J
8a/L
8g/J
8.e/L
16d/Jk
8d/L}
{8e/J
=8
8g/L
8b/J
8.a/L
16g/Jk
4g;/}
==
*-
